img/placeholder.svg

<?xml version="1.0" encoding="UTF-8" standalone="no"?>
<svg xmlns:svg="http://www.w3.org/2000/svg" xmlns="http://www.w3.org/2000/svg" version="1.0" width="150" height="150">
  <path fill="#ccc" d="M 104.68731,56.689353 C 102.19435,80.640493 93.104981,97.26875 74.372196,97.26875 55.639402,97.26875 46.988823,82.308034 44.057005,57.289941 41.623314,34.938838 55.639402,15.800152 74.372196,15.800152 c 18.732785,0 32.451944,18.493971 30.315114,40.889201 z"/>
  <path fill="#ccc" d="M 92.5675 89.6048 C 90.79484 93.47893 89.39893 102.4504 94.86478 106.9039 C 103.9375 114.2963 106.7064 116.4723 118.3117 118.9462 C 144.0432 124.4314 141.6492 138.1543 146.5244 149.2206 L 4.268444 149.1023 C 8.472223 138.6518 6.505799 124.7812 32.40051 118.387 C 41.80992 116.0635 45.66513 113.8823 53.58659 107.0158 C 58.52744 102.7329 57.52583 93.99267 56.43084 89.26926 C 52.49275 88.83011 94.1739 88.14054 92.5675 89.6048 z" />
</svg>

<svg xmlns="http://www.w3.org/2000/svg" version="1.0" width="150" height="150"><path fill="#ccc" d="M104.687 56.69c-2.493 23.95-11.582 40.579-30.315 40.579S46.99 82.308 44.057 57.289C41.623 34.94 55.639 15.8 74.372 15.8s32.452 18.494 30.315 40.89z"/><path fill="#ccc" d="M92.567 89.605c-1.772 3.874-3.168 12.845 2.298 17.299 9.073 7.392 11.841 9.568 23.447 12.042 25.731 5.485 23.337 19.208 28.212 30.275l-142.256-.119c4.204-10.45 2.238-24.32 28.133-30.715 9.409-2.323 13.264-4.505 21.186-11.371 4.94-4.283 3.939-13.023 2.844-17.747-3.938-.439 37.743-1.128 36.136.336z"/></svg>
